public/images/logos/usagov.svg

<?xml version="1.0" encoding="UTF-8" standalone="no"?>
<svg width="31.999998" height="31.999998" viewBox="0 0 8.4654683 8.4691885" version="1.1" id="svg7" xmlns="http://www.w3.org/2000/svg" xmlns:svg="http://www.w3.org/2000/svg">
  <defs id="defs7">
    <clipPath clipPathUnits="userSpaceOnUse" id="clipPath13">
      <path id="path13" style="display:none;fill:#ff0000;stroke-width:0.0560195px" d="M 5.1293108,3.4890187 V 4.6708186 L 7.0348736,3.4970115 Z m 0,0 -1.1904435,-0.005 L 3.1813915,4.6614401 3.9347079,5.40654 5.1293108,4.67074 Z M 3.9347079,5.4066257 3.1813915,4.6615186 1.7416304,6.7576257 Z M 3.1813915,4.6615186 3.9388673,3.4840973 1.9534083,3.4757393 Z m 1.9479193,-3.0277141 -1.1904435,1.8502928 1.1904435,0.005 z m 0,3.0370141 -1.1946029,0.7358071 1.1946029,1.1815784 z" />
      <path id="lpe_path-effect13" style="fill:#ff0000;stroke-width:0.0560195px" class="powerclip" d="M -5.0018601,-5 H 13.467329 V 13.469189 H -5.0018601 Z M 5.1293108,3.4890187 V 4.6708186 L 7.0348736,3.4970115 Z m 0,0 -1.1904435,-0.005 L 3.1813915,4.6614401 3.9347079,5.40654 5.1293108,4.67074 Z M 3.9347079,5.4066257 3.1813915,4.6615186 1.7416304,6.7576257 Z M 3.1813915,4.6615186 3.9388673,3.4840973 1.9534083,3.4757393 Z m 1.9479193,-3.0277141 -1.1904435,1.8502928 1.1904435,0.005 z m 0,3.0370141 -1.1946029,0.7358071 1.1946029,1.1815784 z" />
    </clipPath>
  </defs>
  <path style="fill:#000000;fill-opacity:0.956425;stroke:none;stroke-width:0.106934;stroke-miterlimit:4;stroke-dasharray:none;stroke-opacity:1" id="ellipse1" clip-path="url(#clipPath13)" d="M 8.4673285,4.2345943 A 4.2345943,4.2345943 0 0 1 4.2327342,8.4691887 4.2345943,4.2345943 0 0 1 -0.00186014,4.2345943 4.2345943,4.2345943 0 0 1 4.2327342,0 4.2345943,4.2345943 0 0 1 8.4673285,4.2345943 Z" />
</svg>

<svg width="32" height="32" viewBox="0 0 8.465 8.469" xmlns="http://www.w3.org/2000/svg">
  <defs>
    <clipPath clipPathUnits="userSpaceOnUse" id="a">
      <path style="fill:red;stroke-width:.0560195px" class="powerclip" d="M-5.002-5h18.47v18.47h-18.47ZM5.13 3.489v1.182l1.906-1.174Zm0 0-1.19-.005-.758 1.177.754.746 1.194-.736ZM3.935 5.407l-.754-.745-1.44 2.096Zm-.754-.745.758-1.178-1.986-.008ZM5.13 1.634l-1.19 1.85 1.19.005zm0 3.037-1.194.736 1.194 1.181z"/>
    </clipPath>
  </defs>
  <path style="fill:#000;fill-opacity:.956425;stroke:none;stroke-width:.106934;stroke-miterlimit:4;stroke-dasharray:none;stroke-opacity:1" clip-path="url(#a)" d="M8.467 4.235a4.235 4.235 0 0 1-4.234 4.234A4.235 4.235 0 0 1-.002 4.235 4.235 4.235 0 0 1 4.233 0a4.235 4.235 0 0 1 4.234 4.235Z"/>
</svg>
